src/icons/hds/ui/location.svg

<svg xmlns="http://www.w3.org/2000/svg" width="24" height="24" viewBox="0 0 24 24">
  <g fill="none" fill-rule="evenodd">
    <rect width="24" height="24"/>
    <path fill="currentColor" d="M11.9668825,1.5 C14.0265129,1.5 16.0868607,2.27765217 17.6579477,3.83367391 C20.8001216,6.945 20.5877738,11.7938478 17.6579477,15.1017391 L17.0345401,15.8106912 C14.4234499,18.8020947 12.9687707,20.7705652 11.9668825,22.7476957 C10.8936651,20.6184783 9.28527377,18.4993043 6.27796942,15.1017391 C3.34814334,11.7938478 3.13507812,6.945 6.27796942,3.83367391 C7.84905638,2.27765217 9.90868681,1.5 11.9668825,1.5 Z M11.9990214,3.5 C10.3743156,3.5 8.84684911,4.12597765 7.69956105,5.26178608 C6.56645371,6.38341379 5.97896659,7.81769268 6.00057531,9.41066063 C6.02150876,10.9840457 6.64883696,12.5452758 7.7670883,13.8087107 L8.42773137,14.5605537 C10.0166829,16.3842493 11.144166,17.8000085 12.0003719,19.064357 C12.9747902,17.627377 14.2915717,16.0006454 16.2329803,13.8087107 C17.3512316,12.5452758 17.9785598,10.9840457 17.9994933,9.41066063 C18.0197514,7.81769268 17.4322643,6.38341379 16.3005075,5.26178608 C15.1518689,4.12597765 13.6250777,3.5 11.9990214,3.5 Z M12.0003939,6 C13.9337648,6 15.5,7.56702307 15.5,9.50039392 C15.5,11.4329769 13.9337648,13 12.0003939,13 C10.0670231,13 8.5,11.4329769 8.5,9.50039392 C8.5,7.56702307 10.0670231,6 12.0003939,6 Z M12.0003376,8 C11.1725186,8 10.5,8.67319379 10.5,9.50033761 C10.5,10.3268062 11.1725186,11 12.0003376,11 C12.8274814,11 13.5,10.3268062 13.5,9.50033761 C13.5,8.67319379 12.8274814,8 12.0003376,8 Z"/>
  </g>
</svg>

<svg viewBox="0 0 24 24" role="img" xmlns="http://www.w3.org/2000/svg"><g fill="none" fill-rule="evenodd"><path d="M0 0h24v24H0z"/><path d="M11.967 1.5c2.06 0 4.12.778 5.69 2.334 3.143 3.111 2.93 7.96 0 11.268l-.622.709c-2.612 2.991-4.066 4.96-5.068 6.937-1.073-2.13-2.682-4.249-5.689-7.646-2.93-3.308-3.143-8.157 0-11.268A8.06 8.06 0 0111.967 1.5zm.032 2a6.072 6.072 0 00-4.3 1.762A5.606 5.606 0 006.002 9.41c.02 1.573.648 3.134 1.766 4.398l.66.752c1.59 1.823 2.717 3.239 3.573 4.503.975-1.437 2.292-3.063 4.233-5.255 1.118-1.264 1.746-2.825 1.766-4.398a5.616 5.616 0 00-1.698-4.15A6.077 6.077 0 0011.999 3.5zM12 6a3.5 3.5 0 110 6.999A3.5 3.5 0 0112 6zm0 2c-.827 0-1.5.673-1.5 1.5S11.173 11 12 11s1.5-.673 1.5-1.5S12.827 8 12 8z" fill="currentColor"/></g></svg>
